assets/img/footer/vk.svg

<svg width="25" height="25" viewBox="0 0 25 25" fill="none" xmlns="http://www.w3.org/2000/svg">
<g clip-path="url(#clip0_13_273)">
<mask id="mask0_13_273" style="mask-type:luminance" maskUnits="userSpaceOnUse" x="0" y="0" width="25" height="25">
<path d="M25 0H0V25H25V0Z" fill="white"/>
</mask>
<g mask="url(#mask0_13_273)">
<path d="M11.987 25H13.028C18.679 25 21.505 25 23.26 23.245C25.015 21.49 25 18.665 25 13.028V11.972C25 6.33599 25 3.51 23.26 1.755C21.52 5.02914e-06 18.679 0 13.028 0H11.987C6.33501 0 3.51 5.02914e-06 1.755 1.755C-1.11759e-06 3.51 0 6.33398 0 11.972V13.028C0 18.665 -1.11759e-06 21.49 1.755 23.245C3.51 25 6.33501 25 11.987 25Z" fill="white"/>
<path d="M13.4154 18.0252C7.77834 18.0252 4.35737 14.1143 4.22437 7.61523H7.07937C7.16838 12.3893 9.34035 14.4152 11.0054 14.8282V7.61523H13.7424V11.7342C15.3484 11.5562 17.0284 9.68223 17.5944 7.61523H20.2854C19.8544 10.1583 18.0254 12.0322 16.7314 12.8052C18.0254 13.4302 20.1073 15.0662 20.9104 18.0252H17.9514C17.3264 16.0472 15.7944 14.5152 13.7424 14.3072V18.0252H13.4154Z" fill="black"/>
</g>
</g>
<defs>
<clipPath id="clip0_13_273">
<rect width="25" height="25" fill="white"/>
</clipPath>
</defs>
</svg>

<svg width="25" height="25" fill="none" xmlns="http://www.w3.org/2000/svg"><g clip-path="url(#a)"><mask id="b" style="mask-type:luminance" maskUnits="userSpaceOnUse" x="0" y="0" width="25" height="25"><path d="M25 0H0v25h25V0Z" fill="#fff"/></mask><g mask="url(#b)"><path d="M11.987 25h1.041c5.651 0 8.477 0 10.232-1.755C25.015 21.49 25 18.665 25 13.028v-1.056c0-5.636 0-8.462-1.74-10.217C21.52 0 18.679 0 13.028 0h-1.041C6.335 0 3.51 0 1.755 1.755 0 3.51 0 6.334 0 11.972v1.056c0 5.637 0 8.462 1.755 10.217C3.51 25 6.335 25 11.987 25Z" fill="#fff"/><path d="M13.415 18.025c-5.637 0-9.058-3.91-9.19-10.41h2.854c.09 4.774 2.261 6.8 3.926 7.213V7.615h2.737v4.12c1.606-.179 3.286-2.053 3.852-4.12h2.691c-.43 2.543-2.26 4.417-3.554 5.19 1.294.625 3.376 2.261 4.18 5.22h-2.96c-.625-1.978-2.157-3.51-4.209-3.718v3.718h-.327Z" fill="#000"/></g></g><defs><clipPath id="a"><path fill="#fff" d="M0 0h25v25H0z"/></clipPath></defs></svg>
